svgs/retro_music.svg

<svg id="vector" xmlns="http://www.w3.org/2000/svg" width="192" height="192" viewBox="0 0 192 192"><path fill="#00000000" d="M160.54 85.6718L54.1097 22.7128C46.1103 17.9808 36 23.7468 36 33.041V158.959C36 168.253 46.1103 174.019 54.1096 169.287L160.54 106.328C168.394 101.682 168.394 90.3177 160.54 85.6718Z" stroke-width="12" stroke="#000000" id="path_0"/><path fill="#00000000" d="M74 64H38.1393C36.9578 64 36 64.9578 36 66.1393V113.861C36 115.042 36.9578 116 38.1393 116H74C88.3594 116 100 104.359 100 90C100 75.6406 88.3594 64 74 64Z" stroke-width="12" stroke="#000000" id="path_1"/><path fill="#00000000" d="M82 116L98 144" stroke-width="12" stroke="#000000" id="path_2"/></svg>

<svg width="192" height="192" viewBox="0 0 192 192" fill="none" xmlns="http://www.w3.org/2000/svg"><path d="M160.54 85.672 54.11 22.712c-8-4.73-18.11 1.036-18.11 10.33V158.96c0 9.294 10.11 15.06 18.11 10.328l106.43-62.959c7.854-4.646 7.854-16.01 0-20.656Z" stroke="#000" stroke-width="12"/><path d="M74 64H38.14A2.14 2.14 0 0 0 36 66.14v47.721A2.14 2.14 0 0 0 38.14 116H74c14.36 0 26-11.641 26-26 0-14.36-11.64-26-26-26Zm8 52 16 28" stroke="#000" stroke-width="12"/></svg>
